X:1
T: Lord MacDonald
T: O Mither
C:Surenne Collection
R:Reel
Q: 232
K:D
M:4/4
L:1/8
|:A|FA Af1/2g1/2 a"ony bodie but"f ed|g"the duddy blacksmith"f ed Bd BA|FA Af1/2g1/2 af ed|e1/2f1/2g f1/2g1/2a e2 dA|
FA Af1/2g1/2 af ed|gf ed Bd BA|FA Af1/2g1/2 af ed|e1/2f1/2g f1/2g1/2a e2 dG|
FA AB AB AF|G2 G2 GA BG|FA AB AB AF|GB AF E2 Dg|
fa ab ab af|g2 g2 ga bg|fa ab ab af|gb af e2 d:|
